src/images/svg/symbols/index50s1-new.svg

<svg width="33" height="32" viewBox="0 0 33 32" fill="none" xmlns="http://www.w3.org/2000/svg">
<path d="M22.834 13.0001H24.334V22H22.834V32H21.834V22H20.334V13.0001H21.834V11.0001H22.834V13.0001Z" fill="#85ACB0"/>
<path d="M30.334 11V18H28.834V22H27.834V18H26.334V11H30.334Z" fill="#85ACB0"/>
<path d="M16.834 20V16H15.834V20H14.334V28H15.834V30H16.834V28H18.334V20H16.834Z" fill="#85ACB0"/>
<path d="M10.834 15H12.334V21H10.834V28H9.83398V21H8.33398V15H9.83398V13H10.834V15Z" fill="#85ACB0"/>
<path d="M4.83398 19H6.33398V23H4.83398V25H3.83398V23H2.33398V19H3.83398V17H4.83398V19Z" fill="#85ACB0"/>
<path d="M22.334 5C22.334 2.23858 24.5726 0 27.334 0C30.0954 0 32.334 2.23858 32.334 5C32.334 7.76142 30.0954 10 27.334 10C24.5726 10 22.334 7.76142 22.334 5Z" fill="#FF444F"/>
<path d="M24.5884 7.0005V6.2745H25.7164V3.4665H25.6624L24.8104 4.5825L24.2344 4.1325L25.2364 2.8125H26.6164V6.2745H27.5044V7.0005H24.5884Z" fill="white"/>
<path d="M29.104 7.0725C28.8 7.0725 28.544 7.0245 28.336 6.9285C28.128 6.8285 27.942 6.6885 27.778 6.5085L28.3 5.9805C28.412 6.1045 28.536 6.2025 28.672 6.2745C28.808 6.3465 28.962 6.3825 29.134 6.3825C29.31 6.3825 29.432 6.3565 29.5 6.3045C29.568 6.2485 29.602 6.1745 29.602 6.0825C29.602 5.9345 29.496 5.8465 29.284 5.8185L28.942 5.7765C28.234 5.6885 27.88 5.3645 27.88 4.8045C27.88 4.6525 27.908 4.5145 27.964 4.3905C28.024 4.2625 28.106 4.1545 28.21 4.0665C28.318 3.9745 28.446 3.9045 28.594 3.8565C28.746 3.8045 28.916 3.7785 29.104 3.7785C29.268 3.7785 29.412 3.7905 29.536 3.8145C29.664 3.8345 29.776 3.8665 29.872 3.9105C29.972 3.9505 30.062 4.0025 30.142 4.0665C30.226 4.1265 30.308 4.1945 30.388 4.2705L29.878 4.7925C29.778 4.6925 29.664 4.6145 29.536 4.5585C29.412 4.4985 29.284 4.4685 29.152 4.4685C29 4.4685 28.892 4.4925 28.828 4.5405C28.764 4.5885 28.732 4.6525 28.732 4.7325C28.732 4.8165 28.754 4.8825 28.798 4.9305C28.846 4.9745 28.934 5.0065 29.062 5.0265L29.416 5.0745C30.108 5.1665 30.454 5.4825 30.454 6.0225C30.454 6.1745 30.422 6.3145 30.358 6.4425C30.294 6.5705 30.202 6.6825 30.082 6.7785C29.966 6.8705 29.824 6.9425 29.656 6.9945C29.492 7.0465 29.308 7.0725 29.104 7.0725Z" fill="white"/>
<path d="M0.333984 2C0.333984 0.89543 1.22941 0 2.33398 0H12.334C13.4386 0 14.334 0.895431 14.334 2V8C14.334 9.10457 13.4386 10 12.334 10H2.33398C1.22941 10 0.333984 9.10457 0.333984 8V2Z" fill="#0E0E0E"/>
<path d="M6.7123 3.46431H4.1763L4.0563 5.23231H4.1203C4.17363 5.09898 4.2323 4.97898 4.2963 4.87231C4.36563 4.76031 4.44563 4.66698 4.5363 4.59231C4.62696 4.51231 4.7363 4.45098 4.8643 4.40831C4.9923 4.36565 5.1443 4.34431 5.3203 4.34431C5.5603 4.34431 5.7843 4.38431 5.9923 4.46431C6.2003 4.54431 6.38163 4.66165 6.5363 4.81631C6.69096 4.96565 6.81363 5.15231 6.9043 5.37631C6.99496 5.59498 7.0403 5.84298 7.0403 6.12031C7.0403 6.40298 6.9923 6.66698 6.8963 6.91231C6.80563 7.15231 6.66696 7.36031 6.4803 7.53631C6.29896 7.71231 6.07496 7.85098 5.8083 7.95231C5.54163 8.04831 5.23763 8.09631 4.8963 8.09631C4.6243 8.09631 4.3843 8.06698 4.1763 8.00831C3.9683 7.94965 3.7843 7.87231 3.6243 7.77631C3.4643 7.67498 3.32563 7.56031 3.2083 7.43231C3.09096 7.30431 2.98963 7.16831 2.9043 7.02431L3.7763 6.33631C3.89896 6.55498 4.04563 6.74165 4.2163 6.89631C4.38696 7.04565 4.6163 7.12031 4.9043 7.12031C5.1923 7.12031 5.4083 7.03765 5.5523 6.87231C5.70163 6.70698 5.7763 6.48831 5.7763 6.21631V6.15231C5.7763 5.89631 5.70163 5.69365 5.5523 5.54431C5.40296 5.39498 5.19763 5.32031 4.9363 5.32031C4.71763 5.32031 4.5363 5.36565 4.3923 5.45631C4.25363 5.54165 4.14696 5.62698 4.0723 5.71231L3.0883 5.57631L3.2963 2.41631H6.7123V3.46431Z" fill="white"/>
<path d="M9.73317 8.09631C9.00251 8.09631 8.46117 7.84298 8.10917 7.33631C7.75717 6.82965 7.58117 6.12031 7.58117 5.20831C7.58117 4.29631 7.75717 3.58698 8.10917 3.08031C8.46117 2.57365 9.00251 2.32031 9.73317 2.32031C10.4638 2.32031 11.0052 2.57365 11.3572 3.08031C11.7092 3.58698 11.8852 4.29631 11.8852 5.20831C11.8852 6.12031 11.7092 6.82965 11.3572 7.33631C11.0052 7.84298 10.4638 8.09631 9.73317 8.09631ZM9.73317 7.08031C10.0532 7.08031 10.2745 6.96298 10.3972 6.72831C10.5198 6.49365 10.5812 6.16298 10.5812 5.73631V4.68031C10.5812 4.25365 10.5198 3.92298 10.3972 3.68831C10.2745 3.45365 10.0532 3.33631 9.73317 3.33631C9.41317 3.33631 9.19184 3.45365 9.06917 3.68831C8.94651 3.92298 8.88517 4.25365 8.88517 4.68031V5.73631C8.88517 6.16298 8.94651 6.49365 9.06917 6.72831C9.19184 6.96298 9.41317 7.08031 9.73317 7.08031Z" fill="white"/>
</svg>

<svg width="33" height="32" fill="none" xmlns="http://www.w3.org/2000/svg"><path d="M22.834 13h1.5v9h-1.5v10h-1V22h-1.5v-9h1.5v-2h1v2ZM30.334 11v7h-1.5v4h-1v-4h-1.5v-7h4ZM16.834 20v-4h-1v4h-1.5v8h1.5v2h1v-2h1.5v-8h-1.5ZM10.834 15h1.5v6h-1.5v7h-1v-7h-1.5v-6h1.5v-2h1v2ZM4.834 19h1.5v4h-1.5v2h-1v-2h-1.5v-4h1.5v-2h1v2Z" fill="#85ACB0"/><path d="M22.334 5a5 5 0 1 1 10 0 5 5 0 0 1-10 0Z" fill="#FF444F"/><path d="M24.588 7v-.726h1.128V3.466h-.054l-.852 1.116-.576-.45 1.002-1.32h1.38v3.462h.888V7h-2.916ZM29.104 7.072c-.304 0-.56-.048-.768-.144-.208-.1-.394-.24-.558-.42l.522-.527c.112.123.236.221.372.293.136.072.29.109.462.109.176 0 .298-.027.366-.079a.273.273 0 0 0 .102-.222c0-.147-.106-.236-.318-.263l-.342-.042c-.708-.088-1.062-.413-1.062-.973 0-.152.028-.29.084-.413a.942.942 0 0 1 .246-.325c.108-.091.236-.161.384-.21.152-.051.322-.077.51-.077.164 0 .308.012.432.035.128.02.24.052.336.096.1.04.19.093.27.156.084.06.166.128.246.205l-.51.522c-.1-.1-.214-.179-.342-.234a.872.872 0 0 0-.384-.09c-.152 0-.26.023-.324.071a.228.228 0 0 0-.096.192c0 .084.022.15.066.199.048.043.136.075.264.096l.354.047c.692.093 1.038.409 1.038.949a.926.926 0 0 1-.096.42c-.064.128-.156.24-.276.336a1.293 1.293 0 0 1-.426.216 1.822 1.822 0 0 1-.552.077Z" fill="#fff"/><path d="M.334 2a2 2 0 0 1 2-2h10a2 2 0 0 1 2 2v6a2 2 0 0 1-2 2h-10a2 2 0 0 1-2-2V2Z" fill="#0E0E0E"/><path d="M6.712 3.464H4.176l-.12 1.768h.064c.054-.133.112-.253.176-.36.07-.112.15-.205.24-.28.091-.08.2-.141.328-.184.128-.042.28-.064.456-.064.24 0 .464.04.672.12a1.6 1.6 0 0 1 .912.912c.091.219.136.467.136.744 0 .283-.048.547-.144.792-.09.24-.229.448-.416.624a1.94 1.94 0 0 1-.672.416c-.266.096-.57.144-.912.144a2.66 2.66 0 0 1-.72-.088 2.26 2.26 0 0 1-.552-.232 2.042 2.042 0 0 1-.416-.344 2.456 2.456 0 0 1-.304-.408l.872-.688a2.2 2.2 0 0 0 .44.56c.171.15.4.224.688.224.288 0 .504-.082.648-.248.15-.165.224-.384.224-.656v-.064c0-.256-.074-.458-.224-.608-.149-.149-.354-.224-.616-.224-.218 0-.4.046-.544.136-.138.086-.245.171-.32.256l-.984-.136.208-3.16h3.416v1.048ZM9.733 8.096c-.73 0-1.272-.253-1.624-.76-.352-.506-.528-1.216-.528-2.128 0-.912.176-1.621.528-2.128.352-.506.894-.76 1.624-.76.73 0 1.272.254 1.624.76.352.507.528 1.216.528 2.128 0 .912-.176 1.622-.528 2.128-.352.507-.893.76-1.624.76Zm0-1.016c.32 0 .541-.117.664-.352.123-.234.184-.565.184-.992V4.68c0-.426-.061-.757-.184-.992-.123-.234-.344-.352-.664-.352-.32 0-.541.118-.664.352-.122.235-.184.566-.184.992v1.056c0 .427.062.758.184.992.123.235.344.352.664.352Z" fill="#fff"/></svg>
